public/img/icons/web.svg

<?xml version="1.0" encoding="UTF-8" standalone="no" ?>
<!DOCTYPE svg PUBLIC "-//W3C//DTD SVG 1.1//EN" "http://www.w3.org/Graphics/SVG/1.1/DTD/svg11.dtd">
<svg xmlns="http://www.w3.org/2000/svg" xmlns:xlink="http://www.w3.org/1999/xlink" version="1.1" width="1080" height="1080" viewBox="0 0 1080 1080" xml:space="preserve">
<desc>Created with Fabric.js 5.2.4</desc>
<defs>
</defs>
<g transform="matrix(1 0 0 1 540 540)" id="67c32dbc-9891-49d1-8899-569746be2e8a"  >
<rect style="stroke: none; stroke-width: 1; stroke-dasharray: none; stroke-linecap: butt; stroke-dashoffset: 0; stroke-linejoin: miter; stroke-miterlimit: 4; fill: rgb(255,255,255); fill-rule: nonzero; opacity: 1; visibility: hidden;" vector-effect="non-scaling-stroke"  x="-540" y="-540" rx="0" ry="0" width="1080" height="1080" />
</g>
<g transform="matrix(1 0 0 1 540 540)" id="822dadc4-281b-41b0-aea0-a6d03e845345"  >
</g>
<g transform="matrix(1 0 0 1 540 540)"  >
<g style="" vector-effect="non-scaling-stroke"   >
		<g transform="matrix(1 0 0 1 -89.59 4.35)"  >
<path style="stroke: none; stroke-width: 1; stroke-dasharray: none; stroke-linecap: butt; stroke-dashoffset: 0; stroke-linejoin: miter; stroke-miterlimit: 4; fill: rgb(212,225,244); fill-rule: nonzero; opacity: 1;" vector-effect="non-scaling-stroke"  transform=" translate(-166.55, -260.35)" d="M 166.1 254.3 L 124 254.3 C 124.6 240.5 127.5 226.8 132.4 213.9 C 141.1 216.9 153.6 219.4 169.3 221.20000000000002 C 167.5 232.20000000000002 166.4 243.20000000000002 166.10000000000002 254.3 z M 166.1 266.3 C 166.4 277.8 167.5 289.2 169.6 300.5 C 153.7 302.3 141.4 304.8 132.89999999999998 307.7 C 127.69999999999997 294.5 124.69999999999997 280.5 124.09999999999998 266.3 L 166.09999999999997 266.3 z M 191.6 159.8 C 191.2 160.4 190.9 161.10000000000002 190.5 161.70000000000002 C 183.8 161.10000000000002 177.4 160.4 171.4 159.70000000000002 C 182.70000000000002 150.3 195.4 142.8 209.10000000000002 137.60000000000002 C 202.3 144.20000000000002 196.50000000000003 151.70000000000002 191.60000000000002 159.8 z M 160.2 170.2 C 167.7 171.39999999999998 175.79999999999998 172.29999999999998 184.39999999999998 173.2 C 178.89999999999998 184.79999999999998 174.7 196.89999999999998 171.79999999999998 209.39999999999998 C 156.89999999999998 207.7 145.1 205.49999999999997 137.29999999999998 202.89999999999998 C 143.2 190.89999999999998 150.89999999999998 179.89999999999998 160.2 170.2 z M 137.8 318.7 C 145.70000000000002 316.09999999999997 157.3 313.9 172.10000000000002 312.3 C 175.10000000000002 324.8 179.40000000000003 337 185.00000000000003 348.6 C 176.50000000000003 349.40000000000003 168.50000000000003 350.3 161.20000000000002 351.40000000000003 C 151.70000000000002 341.8 143.9 330.8 137.8 318.70000000000005 z M 172.7 362 C 178.5 361.3 184.7 360.7 191.2 360.1 C 191.29999999999998 360.3 191.5 360.6 191.6 360.8 C 196.5 368.90000000000003 202.29999999999998 376.40000000000003 209.1 383.1 C 195.9 378 183.6 370.90000000000003 172.7 362 z" stroke-linecap="round" />
</g>
		<g transform="matrix(1 0 0 1 0 0)"  >
<path style="stroke: none; stroke-width: 1; stroke-dasharray: none; stroke-linecap: butt; stroke-dashoffset: 0; stroke-linejoin: miter; stroke-miterlimit: 4; fill: rgb(81,93,117); fill-rule: nonzero; opacity: 1;" vector-effect="non-scaling-stroke"  transform=" translate(-256.14, -256)" d="M 463.9 348.8 L 463.9 167.2 C 476.4 162.2 482.4 148 477.4 135.6 C 472.4 123.1 458.2 117.1 445.79999999999995 122.1 C 443.49999999999994 123 441.4 124.3 439.49999999999994 125.8 L 280.49999999999994 34.89999999999999 C 280.8999999999999 33.099999999999994 281.19999999999993 31.199999999999992 281.19999999999993 29.29999999999999 C 281 15.7 269.9 4.9 256.4 5 C 242.99999999999997 5.2 232.29999999999998 16 232.09999999999997 29.3 C 232.09999999999997 31.2 232.29999999999995 33.2 232.79999999999995 35.1 L 73.09999999999997 126.1 C 61.599999999999966 118.89999999999999 46.499999999999964 122.3 39.19999999999997 133.79999999999998 C 36.79999999999997 137.6 35.499999999999964 142.1 35.39999999999997 146.6 C 35.39999999999997 155.79999999999998 40.69999999999997 164.29999999999998 48.99999999999997 168.29999999999998 L 48.99999999999997 347.4 C 35.99999999999997 350.79999999999995 28.19999999999997 364.09999999999997 31.599999999999973 377.09999999999997 C 34.99999999999997 390.09999999999997 48.29999999999997 397.9 61.29999999999997 394.49999999999994 C 65.09999999999997 393.49999999999994 68.49999999999997 391.69999999999993 71.39999999999996 389.09999999999997 L 232.99999999999994 481.09999999999997 C 232.99999999999994 481.59999999999997 232.89999999999995 482.2 232.89999999999995 482.7 C 233.09999999999994 496.2 244.19999999999996 507.09999999999997 257.69999999999993 507 C 270.99999999999994 506.9 281.79999999999995 496.1 281.99999999999994 482.7 C 281.99999999999994 481.8 281.8999999999999 480.9 281.79999999999995 480 L 440.19999999999993 389.8 C 449.8999999999999 399.1 465.3999999999999 398.8 474.69999999999993 389 C 483.99999999999994 379.3 483.69999999999993 363.8 473.8999999999999 354.5 C 471.0999999999999 351.9 467.69999999999993 349.9 463.8999999999999 348.8 z M 455 132.4 C 461.8 132.5 467.2 138.1 467 144.9 C 466.9 151.70000000000002 461.3 157.1 454.5 156.9 C 447.8 156.8 442.5 151.3 442.5 144.6 C 442.5 137.79999999999998 448.1 132.29999999999998 455 132.4 z M 256.7 17 C 263.5 17.1 268.9 22.7 268.7 29.5 C 268.59999999999997 36.3 263 41.7 256.2 41.5 C 249.5 41.4 244.2 35.9 244.2 29.2 C 244.2 22.4 249.79999999999998 16.9 256.7 17 z M 60 134.3 C 66.8 134.4 72.2 140 72 146.8 C 71.9 153.60000000000002 66.3 159 59.5 158.8 C 52.8 158.70000000000002 47.5 153.20000000000002 47.5 146.5 C 47.5 139.7 53.1 134.2 60 134.3 z M 55.1 383.3 C 48.300000000000004 383.2 42.900000000000006 377.6 43.1 370.8 C 43.2 364 48.800000000000004 358.6 55.6 358.8 C 62.300000000000004 358.90000000000003 67.6 364.40000000000003 67.6 371.1 C 67.5 377.8 61.89999999999999 383.3 55.099999999999994 383.3 z M 257.5 495 C 250.7 494.9 245.3 489.3 245.5 482.5 C 245.6 475.7 251.2 470.3 258 470.5 C 264.7 470.6 270 476.1 270 482.8 C 269.9 489.6 264.3 495.1 257.5 495 z M 263.5 459.2 L 263.5 398 L 251.5 398 L 251.5 459.1 C 245.5 460.6 240.3 464.3 236.9 469.5 L 78.2 379.1 C 79.8 374.70000000000005 80 369.90000000000003 78.9 365.40000000000003 L 140.3 336.6 L 135.20000000000002 325.70000000000005 L 73.20000000000002 354.70000000000005 C 69.90000000000002 351.1 65.70000000000002 348.6 61.000000000000014 347.40000000000003 L 61.000000000000014 170.8 C 67.60000000000001 170.5 73.90000000000002 167.60000000000002 78.30000000000001 162.60000000000002 L 135.10000000000002 194.10000000000002 L 140.90000000000003 183.60000000000002 L 83.90000000000003 152.00000000000003 C 85.20000000000003 146.30000000000004 84.40000000000003 140.20000000000002 81.60000000000004 135.10000000000002 L 238.50000000000006 45.70000000000002 C 241.80000000000007 49.30000000000002 246.00000000000006 51.80000000000002 250.70000000000005 52.90000000000002 L 251.50000000000006 122.70000000000002 L 263.50000000000006 122.60000000000002 L 262.70000000000005 52.90000000000002 C 267.40000000000003 51.70000000000002 271.6 49.20000000000002 274.90000000000003 45.60000000000002 L 432.20000000000005 135.60000000000002 C 429.80000000000007 141.40000000000003 429.80000000000007 147.90000000000003 432.1 153.70000000000002 L 375 185.4 L 380.8 195.9 L 439.3 163.3 C 442.90000000000003 166.3 447.3 168.10000000000002 451.90000000000003 168.70000000000002 L 451.90000000000003 348.3 C 446.8 349.3 442.20000000000005 352 438.70000000000005 355.8 L 383.50000000000006 320.6 L 377.1000000000001 330.70000000000005 L 433.1000000000001 366.40000000000003 C 432.00000000000006 370.8 432.2000000000001 375.50000000000006 433.7000000000001 379.8 L 277.5000000000001 468.8 C 274.10000000000014 464 269.10000000000014 460.6 263.5000000000001 459.2 z M 456.9 384.4 C 450.09999999999997 384.29999999999995 444.7 378.7 444.9 371.9 C 445 365.09999999999997 450.59999999999997 359.7 457.4 359.9 C 464.09999999999997 360 469.5 365.5 469.5 372.2 C 469.4 378.9 463.8 384.4 456.9 384.4 z" stroke-linecap="round" />
</g>
		<g transform="matrix(1 0 0 1 1.36 4.3)"  >
<path style="stroke: none; stroke-width: 1; stroke-dasharray: none; stroke-linecap: butt; stroke-dashoffset: 0; stroke-linejoin: miter; stroke-miterlimit: 4; fill: rgb(243,146,0); fill-rule: nonzero; opacity: 1;" vector-effect="non-scaling-stroke"  transform=" translate(-257.5, -260.3)" d="M 257.5 116.6 L 254.2 116.6 C 175.5 118.4 112 182.1 112 260.3 C 112 338.5 175.4 402.2 254.1 404 L 257.4 404 C 337.7 404 403 339.5 403 260.3 C 403 181.10000000000002 337.7 116.60000000000002 257.5 116.60000000000002 z M 251.5 296.4 C 225.2 296.5 201.3 297.5 181.6 299.29999999999995 C 179.6 288.4 178.5 277.4 178.2 266.29999999999995 L 251.5 266.29999999999995 L 251.5 296.4 z M 263.5 266.29999999999995 L 334.5 266.29999999999995 C 334.2 277.29999999999995 333.1 288.29999999999995 331.1 299.09999999999997 C 311.90000000000003 297.49999999999994 288.8 296.59999999999997 263.5 296.4 L 263.5 266.29999999999995 z M 263.5 254.29999999999995 L 263.5 225.39999999999995 C 289.2 225.29999999999995 312.1 224.29999999999995 331.3 222.69999999999996 C 333.1 233.19999999999996 334.2 243.69999999999996 334.5 254.29999999999995 L 263.5 254.29999999999995 z M 263.5 213.39999999999995 L 263.5 176.19999999999993 C 282.9 176.09999999999994 300.2 175.59999999999994 315.6 174.59999999999994 C 321.40000000000003 186.09999999999994 325.90000000000003 198.29999999999993 328.8 210.79999999999995 C 310.1 212.39999999999995 287.90000000000003 213.29999999999995 263.5 213.39999999999995 z M 263.5 164.19999999999993 L 263.5 129.09999999999994 C 280.3 131.69999999999993 296.1 143.49999999999994 308.8 162.99999999999994 C 295.3 163.69999999999993 280.2 164.19999999999993 263.5 164.19999999999993 z M 251.5 128.79999999999993 L 251.5 164.19999999999993 C 234.6 164.09999999999994 218.6 163.59999999999994 204 162.59999999999994 C 217.3 142.49999999999994 233.9 130.69999999999993 251.5 128.79999999999995 z M 251.5 176.19999999999993 L 251.5 213.39999999999992 C 226 213.29999999999993 203 212.29999999999993 183.9 210.5999999999999 C 186.9 197.99999999999991 191.4 185.7999999999999 197.3 174.1999999999999 C 213.8 175.3999999999999 232 176.0999999999999 251.5 176.1999999999999 z M 251.5 225.39999999999992 L 251.5 254.29999999999993 L 178.2 254.29999999999993 C 178.5 243.59999999999994 179.5 232.99999999999991 181.39999999999998 222.49999999999991 C 200.99999999999997 224.29999999999993 224.7 225.29999999999993 251.49999999999997 225.39999999999992 z M 166.1 254.29999999999993 L 124 254.29999999999993 C 124.6 240.49999999999991 127.5 226.79999999999993 132.4 213.89999999999992 C 141.1 216.89999999999992 153.6 219.39999999999992 169.3 221.19999999999993 C 167.5 232.19999999999993 166.4 243.19999999999993 166.10000000000002 254.29999999999993 z M 166.1 266.29999999999995 C 166.4 277.79999999999995 167.5 289.19999999999993 169.6 300.49999999999994 C 153.7 302.29999999999995 141.4 304.79999999999995 132.89999999999998 307.69999999999993 C 127.69999999999997 294.49999999999994 124.69999999999997 280.49999999999994 124.09999999999998 266.29999999999995 L 166.09999999999997 266.29999999999995 z M 251.5 308.4 L 251.5 345.59999999999997 C 232.6 345.7 214.4 346.4 197.9 347.59999999999997 C 191.9 335.99999999999994 187.20000000000002 323.79999999999995 184.1 311.09999999999997 C 203 309.49999999999994 225.8 308.49999999999994 251.5 308.4 z M 251.5 357.59999999999997 L 251.5 391.79999999999995 C 234.3 389.99999999999994 217.9 378.59999999999997 204.8 359.19999999999993 C 219.4 358.19999999999993 235.10000000000002 357.69999999999993 251.5 357.5999999999999 z M 263.5 391.49999999999994 L 263.5 357.59999999999997 C 278.8 357.7 293.8 358.2 307.9 359.09999999999997 C 295.29999999999995 377.7 279.9 388.9 263.5 391.49999999999994 z M 263.5 345.59999999999997 L 263.5 308.4 C 288.1 308.5 310.1 309.4 328.5 310.9 C 325.4 323.59999999999997 320.8 335.9 314.7 347.5 C 298.7 346.4 281.2 345.7 263.5 345.6 z M 346.5 266.29999999999995 L 390.9 266.29999999999995 C 390.29999999999995 280.49999999999994 387.29999999999995 294.49999999999994 382.09999999999997 307.69999999999993 C 373.09999999999997 304.5999999999999 360.09999999999997 302.0999999999999 343.09999999999997 300.19999999999993 C 344.99999999999994 288.99999999999994 346.2 277.69999999999993 346.49999999999994 266.29999999999995 z M 346.5 254.29999999999995 C 346.2 243.29999999999995 345.2 232.29999999999995 343.3 221.49999999999994 C 360.1 219.59999999999994 373.5 216.99999999999994 382.5 213.89999999999995 C 387.5 226.79999999999995 390.3 240.49999999999994 390.9 254.29999999999995 L 346.5 254.29999999999995 z M 340.8 209.59999999999997 C 337.90000000000003 197.19999999999996 333.8 185.09999999999997 328.40000000000003 173.59999999999997 C 338.1 172.69999999999996 346.90000000000003 171.59999999999997 354.90000000000003 170.29999999999995 C 364.1 179.89999999999995 371.70000000000005 190.89999999999995 377.6 202.79999999999995 C 369.40000000000003 205.59999999999997 356.8 207.89999999999995 340.8 209.59999999999997 z M 343.8 159.89999999999998 C 337.2 160.79999999999998 330 161.49999999999997 322.3 162.09999999999997 C 321.90000000000003 161.29999999999995 321.40000000000003 160.49999999999997 321 159.79999999999995 C 315.8 151.09999999999997 309.4 143.09999999999997 302 136.09999999999997 C 317.3 141.49999999999997 331.4 149.49999999999997 343.8 159.89999999999998 z M 191.60000000000002 159.79999999999998 C 191.20000000000002 160.39999999999998 190.90000000000003 161.1 190.50000000000003 161.7 C 183.80000000000004 161.1 177.40000000000003 160.39999999999998 171.40000000000003 159.7 C 182.70000000000005 150.29999999999998 195.40000000000003 142.79999999999998 209.10000000000002 137.6 C 202.40000000000003 144.2 196.50000000000003 151.7 191.60000000000002 159.79999999999998 z M 160.20000000000002 170.2 C 167.70000000000002 171.39999999999998 175.8 172.29999999999998 184.4 173.2 C 178.9 184.79999999999998 174.70000000000002 196.89999999999998 171.8 209.39999999999998 C 156.9 207.7 145.10000000000002 205.49999999999997 137.3 202.89999999999998 C 143.20000000000002 190.89999999999998 150.9 179.89999999999998 160.20000000000002 170.2 z M 137.8 318.7 C 145.70000000000002 316.09999999999997 157.3 313.9 172.10000000000002 312.3 C 175.10000000000002 324.8 179.40000000000003 337 185.00000000000003 348.6 C 176.50000000000003 349.40000000000003 168.50000000000003 350.3 161.20000000000002 351.40000000000003 C 151.70000000000002 341.8 143.9 330.8 137.8 318.70000000000005 z M 172.70000000000002 362 C 178.50000000000003 361.3 184.70000000000002 360.7 191.20000000000002 360.1 C 191.3 360.3 191.50000000000003 360.6 191.60000000000002 360.8 C 196.50000000000003 368.90000000000003 202.3 376.40000000000003 209.10000000000002 383.1 C 195.90000000000003 378 183.60000000000002 370.90000000000003 172.70000000000002 362 z M 321 360.8 C 321.2 360.5 321.3 360.2 321.5 360 C 328.8 360.6 335.8 361.3 342.3 362 C 330.3 371.7 316.7 379.3 302.1 384.5 C 309.40000000000003 377.5 315.8 369.5 321 360.8 z M 353.8 351.5 C 345.90000000000003 350.3 337.1 349.3 327.7 348.5 C 333.3 336.9 337.59999999999997 324.6 340.59999999999997 312.1 C 356.49999999999994 313.8 368.9 316.1 377.2 318.8 C 371.09999999999997 330.8 363.2 341.8 353.8 351.5 z" stroke-linecap="round" />
</g>
</g>
</g>
<g transform="matrix(1 0 0 1 540.5 599.83)" style="" id="154be621-b077-4885-96a1-7a9eea8bb6d3"  >
		<text xml:space="preserve" font-family="Raleway" font-size="105" font-style="normal" font-weight="900" style="stroke: none; stroke-width: 1; stroke-dasharray: none; stroke-linecap: butt; stroke-dashoffset: 0; stroke-linejoin: miter; stroke-miterlimit: 4; fill: rgb(0,0,0); fill-rule: nonzero; opacity: 1; white-space: pre;" ><tspan x="-370.76" y="-26.34" >suitcase and a</tspan><tspan x="-141.49" y="92.31" >flight</tspan></text>
</g>
</svg>

<svg version="1.1" id="Layer_1" xmlns="http://www.w3.org/2000/svg" x="0" y="0" viewBox="0 0 512 512" style="enable-background:new 0 0 512 512" xml:space="preserve"><style>.st0{fill:#d4e1f4}</style><path class="st0" d="M166.1 254.3H124c.6-13.8 3.5-27.5 8.4-40.4 8.7 3 21.2 5.5 36.9 7.3-1.8 11-2.9 22-3.2 33.1zM166.1 266.3c.3 11.5 1.4 22.9 3.5 34.2-15.9 1.8-28.2 4.3-36.7 7.2-5.2-13.2-8.2-27.2-8.8-41.4h42zM191.6 159.8c-.4.6-.7 1.3-1.1 1.9-6.7-.6-13.1-1.3-19.1-2 11.3-9.4 24-16.9 37.7-22.1-6.8 6.6-12.6 14.1-17.5 22.2zM160.2 170.2c7.5 1.2 15.6 2.1 24.2 3-5.5 11.6-9.7 23.7-12.6 36.2-14.9-1.7-26.7-3.9-34.5-6.5 5.9-12 13.6-23 22.9-32.7zM137.8 318.7c7.9-2.6 19.5-4.8 34.3-6.4 3 12.5 7.3 24.7 12.9 36.3-8.5.8-16.5 1.7-23.8 2.8-9.5-9.6-17.3-20.6-23.4-32.7zM172.7 362c5.8-.7 12-1.3 18.5-1.9.1.2.3.5.4.7 4.9 8.1 10.7 15.6 17.5 22.3-13.2-5.1-25.5-12.2-36.4-21.1z"/><path d="M463.9 348.8V167.2c12.5-5 18.5-19.2 13.5-31.6-5-12.5-19.2-18.5-31.6-13.5-2.3.9-4.4 2.2-6.3 3.7l-159-90.9c.4-1.8.7-3.7.7-5.6C281 15.7 269.9 4.9 256.4 5c-13.4.2-24.1 11-24.3 24.3 0 1.9.2 3.9.7 5.8l-159.7 91c-11.5-7.2-26.6-3.8-33.9 7.7-2.4 3.8-3.7 8.3-3.8 12.8 0 9.2 5.3 17.7 13.6 21.7v179.1c-13 3.4-20.8 16.7-17.4 29.7 3.4 13 16.7 20.8 29.7 17.4 3.8-1 7.2-2.8 10.1-5.4l161.6 92c0 .5-.1 1.1-.1 1.6.2 13.5 11.3 24.4 24.8 24.3 13.3-.1 24.1-10.9 24.3-24.3 0-.9-.1-1.8-.2-2.7l158.4-90.2c9.7 9.3 25.2 9 34.5-.8 9.3-9.7 9-25.2-.8-34.5-2.8-2.6-6.2-4.6-10-5.7zM455 132.4c6.8.1 12.2 5.7 12 12.5-.1 6.8-5.7 12.2-12.5 12-6.7-.1-12-5.6-12-12.3 0-6.8 5.6-12.3 12.5-12.2zM256.7 17c6.8.1 12.2 5.7 12 12.5-.1 6.8-5.7 12.2-12.5 12-6.7-.1-12-5.6-12-12.3 0-6.8 5.6-12.3 12.5-12.2zM60 134.3c6.8.1 12.2 5.7 12 12.5-.1 6.8-5.7 12.2-12.5 12-6.7-.1-12-5.6-12-12.3 0-6.8 5.6-12.3 12.5-12.2zm-4.9 249c-6.8-.1-12.2-5.7-12-12.5.1-6.8 5.7-12.2 12.5-12 6.7.1 12 5.6 12 12.3-.1 6.7-5.7 12.2-12.5 12.2zM257.5 495c-6.8-.1-12.2-5.7-12-12.5.1-6.8 5.7-12.2 12.5-12 6.7.1 12 5.6 12 12.3-.1 6.8-5.7 12.3-12.5 12.2zm6-35.8V398h-12v61.1c-6 1.5-11.2 5.2-14.6 10.4L78.2 379.1c1.6-4.4 1.8-9.2.7-13.7l61.4-28.8-5.1-10.9-62 29c-3.3-3.6-7.5-6.1-12.2-7.3V170.8c6.6-.3 12.9-3.2 17.3-8.2l56.8 31.5 5.8-10.5-57-31.6c1.3-5.7.5-11.8-2.3-16.9l156.9-89.4c3.3 3.6 7.5 6.1 12.2 7.2l.8 69.8 12-.1-.8-69.7c4.7-1.2 8.9-3.7 12.2-7.3l157.3 90c-2.4 5.8-2.4 12.3-.1 18.1L375 185.4l5.8 10.5 58.5-32.6c3.6 3 8 4.8 12.6 5.4v179.6c-5.1 1-9.7 3.7-13.2 7.5l-55.2-35.2-6.4 10.1 56 35.7c-1.1 4.4-.9 9.1.6 13.4l-156.2 89c-3.4-4.8-8.4-8.2-14-9.6zm193.4-74.8c-6.8-.1-12.2-5.7-12-12.5.1-6.8 5.7-12.2 12.5-12 6.7.1 12.1 5.6 12.1 12.3-.1 6.7-5.7 12.2-12.6 12.2z" style="fill:#515d75"/><path d="M257.5 116.6h-3.3C175.5 118.4 112 182.1 112 260.3S175.4 402.2 254.1 404h3.3c80.3 0 145.6-64.5 145.6-143.7s-65.3-143.7-145.5-143.7zm-6 179.8c-26.3.1-50.2 1.1-69.9 2.9-2-10.9-3.1-21.9-3.4-33h73.3v30.1zm12-30.1h71c-.3 11-1.4 22-3.4 32.8-19.2-1.6-42.3-2.5-67.6-2.7v-30.1zm0-12v-28.9c25.7-.1 48.6-1.1 67.8-2.7 1.8 10.5 2.9 21 3.2 31.6h-71zm0-40.9v-37.2c19.4-.1 36.7-.6 52.1-1.6 5.8 11.5 10.3 23.7 13.2 36.2-18.7 1.6-40.9 2.5-65.3 2.6zm0-49.2v-35.1c16.8 2.6 32.6 14.4 45.3 33.9-13.5.7-28.6 1.2-45.3 1.2zm-12-35.4v35.4c-16.9-.1-32.9-.6-47.5-1.6 13.3-20.1 29.9-31.9 47.5-33.8zm0 47.4v37.2c-25.5-.1-48.5-1.1-67.6-2.8 3-12.6 7.5-24.8 13.4-36.4 16.5 1.2 34.7 1.9 54.2 2zm0 49.2v28.9h-73.3c.3-10.7 1.3-21.3 3.2-31.8 19.6 1.8 43.3 2.8 70.1 2.9zm-85.4 28.9H124c.6-13.8 3.5-27.5 8.4-40.4 8.7 3 21.2 5.5 36.9 7.3-1.8 11-2.9 22-3.2 33.1zm0 12c.3 11.5 1.4 22.9 3.5 34.2-15.9 1.8-28.2 4.3-36.7 7.2-5.2-13.2-8.2-27.2-8.8-41.4h42zm85.4 42.1v37.2c-18.9.1-37.1.8-53.6 2-6-11.6-10.7-23.8-13.8-36.5 18.9-1.6 41.7-2.6 67.4-2.7zm0 49.2v34.2c-17.2-1.8-33.6-13.2-46.7-32.6 14.6-1 30.3-1.5 46.7-1.6zm12 33.9v-33.9c15.3.1 30.3.6 44.4 1.5-12.6 18.6-28 29.8-44.4 32.4zm0-45.9v-37.2c24.6.1 46.6 1 65 2.5-3.1 12.7-7.7 25-13.8 36.6-16-1.1-33.5-1.8-51.2-1.9zm83-79.3h44.4c-.6 14.2-3.6 28.2-8.8 41.4-9-3.1-22-5.6-39-7.5 1.9-11.2 3.1-22.5 3.4-33.9zm0-12c-.3-11-1.3-22-3.2-32.8 16.8-1.9 30.2-4.5 39.2-7.6 5 12.9 7.8 26.6 8.4 40.4h-44.4zm-5.7-44.7c-2.9-12.4-7-24.5-12.4-36 9.7-.9 18.5-2 26.5-3.3 9.2 9.6 16.8 20.6 22.7 32.5-8.2 2.8-20.8 5.1-36.8 6.8zm3-49.7c-6.6.9-13.8 1.6-21.5 2.2-.4-.8-.9-1.6-1.3-2.3-5.2-8.7-11.6-16.7-19-23.7 15.3 5.4 29.4 13.4 41.8 23.8zm-152.2-.1c-.4.6-.7 1.3-1.1 1.9-6.7-.6-13.1-1.3-19.1-2 11.3-9.4 24-16.9 37.7-22.1-6.7 6.6-12.6 14.1-17.5 22.2zm-31.4 10.4c7.5 1.2 15.6 2.1 24.2 3-5.5 11.6-9.7 23.7-12.6 36.2-14.9-1.7-26.7-3.9-34.5-6.5 5.9-12 13.6-23 22.9-32.7zm-22.4 148.5c7.9-2.6 19.5-4.8 34.3-6.4 3 12.5 7.3 24.7 12.9 36.3-8.5.8-16.5 1.7-23.8 2.8-9.5-9.6-17.3-20.6-23.4-32.7zm34.9 43.3c5.8-.7 12-1.3 18.5-1.9.1.2.3.5.4.7 4.9 8.1 10.7 15.6 17.5 22.3-13.2-5.1-25.5-12.2-36.4-21.1zm148.3-1.2c.2-.3.3-.6.5-.8 7.3.6 14.3 1.3 20.8 2-12 9.7-25.6 17.3-40.2 22.5 7.3-7 13.7-15 18.9-23.7zm32.8-9.3c-7.9-1.2-16.7-2.2-26.1-3 5.6-11.6 9.9-23.9 12.9-36.4 15.9 1.7 28.3 4 36.6 6.7-6.1 12-14 23-23.4 32.7z" style="fill:#f39200"/></svg>
